X:412
T:Madam Hellgsbey’s Dance in Barbara Allen. RH.412
R:reel
S:Rev.R.Harrison’s MS,c1815,Cumbria
O:England
A:Temple Sowerby,Cumbria
Z:vmp.Simon Wilson. Review PJH, 2008.
M:C
L:1/8
Q:2/4=70
K:G
D|G>(A A)(e d)GeG|(FD)DG F/G/A/F/ DD|\
G>(A G)(f d)GfG|dg (b/a/g/f/)g2z:|!
|:d|gdbd c’dbd|gd c’/b/a/g/ (fa)a “qu’s”((3d/e/f/)|\
gdbd c’dbd|dg (b/a/g/f/)g2d’d|!
gdbd c’dbd|ae (c’/b/a/g/) faa d|
eceg dBdg|dg b/a/g/f/ g2z|]

